X:821
T:Romp Among the Whins
R:Reel
B:The Athole Collection
M:C|
L:1/8
K:A
a|e2 dc eAAa|e2 dc fBBa|e2 dc ABcA|fdce fBB:|
|:c|A/A/A ae feac|A/A/A ae fBBc|A/A/A ae feae|fedc fBB:|

